src/assets/icons/plugin.svg

<?xml version="1.0" encoding="UTF-8"?>
<svg width="17px" height="17px" viewBox="0 0 17 17" version="1.1" xmlns="http://www.w3.org/2000/svg" xmlns:xlink="http://www.w3.org/1999/xlink">
    <title>形状结合</title>
    <g id="WEB" stroke="none" stroke-width="1" fill="none" fill-rule="evenodd">
        <g id="钱包已就绪" transform="translate(-1630.000000, -52.000000)" fill="#202124">
            <g id="浏览器固定提示" transform="translate(1438.000000, 52.000000)">
                <g id="形状结合-2" transform="translate(192.000000, 0.000000)">
                    <path d="M5,2 C5,0.8954305 5.8954305,2.02906125e-16 7,0 C8.1045695,-2.02906125e-16 9,0.8954305 9,2 L9,3 L12,3 C13.1045695,3 14,3.8954305 14,5 L14,8 L15,8 C16.1045695,8 17,8.8954305 17,10 C17,11.1045695 16.1045695,12 15,12 L14,12 L14,15 C14,16.1045695 13.1045695,17 12,17 L9,17 L9,16 C9,14.8954305 8.1045695,14 7,14 C5.8954305,14 5,14.8954305 5,16 L5,16 L5,17 L2,17 C0.8954305,17 8.94280938e-16,16.1045695 0,15 L0,12 L1,12 C2.1045695,12 3,11.1045695 3,10 C3,8.8954305 2.1045695,8 1,8 L1,8 L0,8 L0,5 C-3.57315355e-16,3.8954305 0.8954305,3 2,3 L5,3 L5,2 Z" id="形状结合"></path>
                </g>
            </g>
        </g>
    </g>
</svg>

<svg width="17" height="17" xmlns="http://www.w3.org/2000/svg"><path d="M5 2a2 2 0 1 1 4 0v1h3a2 2 0 0 1 2 2v3h1a2 2 0 1 1 0 4h-1v3a2 2 0 0 1-2 2H9v-1a2 2 0 1 0-4 0v1H2a2 2 0 0 1-2-2v-3h1a2 2 0 1 0 0-4H0V5a2 2 0 0 1 2-2h3V2z" fill="#202124" fill-rule="evenodd"/></svg>
